PortableApps/LibreOfficePortable/App/libreoffice/help/media/icon-themes/cmd/lc_mailmergecreatedocuments.svg

<svg viewBox="0 0 24 24" xmlns="http://www.w3.org/2000/svg"><path d="m3 3v16h1v-14c0-.554.446-1 1-1h10v-1zm2 2v16h5.462891l.583984-2.375c1.985937-1.983896 3.968696-3.959533 5.953125-5.933594v-7.691406z" fill="#fff"/><path d="m3 2c-.554 0-1 .446-1 1v16c0 .554.446 1 1 1h1v1c0 .554.446 1 1 1h5.216797l.246094-1h-5.462891v-1-1-10-4h12v7.691406c.333238-.331497.666556-.665211 1-.996094v-6.695312c0-.554-.446-1-1-1h-1v-1c0-.554-.446-1-1-1zm0 1h12v1h-10c-.554 0-1 .446-1 1v14h-1z" fill="#808080"/><path d="m20.419922 11c-.189562 0-.378184.07172-.523438.216797l-1.673828 1.669922 2.847656 2.849609 1.710938-1.638672c.290506-.290127.290506-.756747 0-1.046875l-1.835938-1.833984c-.145254-.145064-.335828-.216797-.52539-.216797zm-2.939453 2.611328-5.529297 5.523438-.951172 3.865234 3.806641-1.011719 5.509765-5.544922z" fill="#eac282"/></svg>

<svg viewBox="0 0 24 24" xmlns="http://www.w3.org/2000/svg">
  <path
     style="fill:#ffffff"
     d="M 3 3 L 3 19 L 4 19 L 4 5 C 4 4.446 4.446 4 5 4 L 15 4 L 15 3 L 3 3 z M 5 5 L 5 21 L 10.462891 21 L 11.046875 18.625 C 13.032812 16.641104 15.015571 14.665467 17 12.691406 L 17 5 L 5 5 z "
     />
  <path
     style="fill:#808080"
     d="M 3 2 C 2.446 2 2 2.446 2 3 L 2 19 C 2 19.554 2.446 20 3 20 L 4 20 L 4 21 C 4 21.554 4.446 22 5 22 L 10.216797 22 L 10.462891 21 L 5 21 L 5 20 L 5 19 L 5 9 L 5 5 L 17 5 L 17 12.691406 C 17.333238 12.359909 17.666556 12.026195 18 11.695312 L 18 5 C 18 4.446 17.554 4 17 4 L 16 4 L 16 3 C 16 2.446 15.554 2 15 2 L 3 2 z M 3 3 L 15 3 L 15 4 L 5 4 C 4.446 4 4 4.446 4 5 L 4 19 L 3 19 L 3 3 z "
     />
  <path
     style="fill:#eac282"
     d="M 20.419922 11 C 20.23036 11 20.041738 11.07172 19.896484 11.216797 L 18.222656 12.886719 L 21.070312 15.736328 L 22.78125 14.097656 C 23.071756 13.807529 23.071756 13.340909 22.78125 13.050781 L 20.945312 11.216797 C 20.800058 11.071733 20.609484 11 20.419922 11 z M 17.480469 13.611328 L 11.951172 19.134766 L 11 23 L 14.806641 21.988281 L 20.316406 16.443359 L 17.480469 13.611328 z "
     />
</svg>
